**kern	**kern	**kern	**kern	**kern
*MM60	*MM60	*MM60	*MM60	*MM60
*k[f#]	*k[f#]	*k[f#]	*k[f#]	*k[f#]
*M4/4	*M4/4	*M4/4	*M4/4	*M4/4
*tb32	*tb32	*tb32	*tb32	*tb32
=1	=1	=1	=1	=1
1r	1r	8r	1r	1r
.	.	8d	.	.
.	.	8d	.	.
.	.	8d	.	.
.	.	8g	.	.
.	.	8g	.	.
.	.	8g	.	.
.	.	8g	.	.
=2	=2	=2	=2	=2
1r	1r	8g	1r	1r
.	.	16f#	.	.
.	.	16e	.	.
.	.	8f#	.	.
.	.	8d	.	.
.	.	8b	.	.
.	.	8b	.	.
.	.	8b	.	.
.	.	8b	.	.
=3	=3	=3	=3	=3
1r	1r	8b	1r	1r
.	.	16a	.	.
.	.	16g	.	.
.	.	8a	.	.
.	.	8a	.	.
.	.	8a	.	.
.	.	8d	.	.
.	.	[4g	.	.
=4	=4	=4	=4	=4
1r	2r	8g]	1r	1r
.	.	16a	.	.
.	.	16g	.	.
.	.	16f#	.	.
.	.	16g	.	.
.	.	16e	.	.
.	.	16f#	.	.
.	8r	16g	.	.
.	.	16f#	.	.
.	8G	16g	.	.
.	.	16a	.	.
.	8G	16g	.	.
.	.	16b	.	.
.	8G	16a	.	.
.	.	16g	.	.
=5	=5	=5	=5	=5
1r	8d	16f#	1r	1r
.	.	16e	.	.
.	8d	16f#	.	.
.	.	16g	.	.
.	8d	16f#	.	.
.	.	16a	.	.
.	8d	16g	.	.
.	.	16f#	.	.
.	8d	4e	.	.
.	16c#	.	.	.
.	16B	.	.	.
.	8c#	[4ee	.	.
.	8A	.	.	.
=6	=6	=6	=6	=6
1r	8f#	16ee]	1r	1r
.	.	16a	.	.
.	8f#	16b	.	.
.	.	16cc#	.	.
.	8f#	16dd	.	.
.	.	16ee	.	.
.	8f#	16cc#	.	.
.	.	16dd	.	.
.	8f#	[4g	.	.
.	16e	.	.	.
.	16d	.	.	.
.	8e	16g]	.	.
.	.	16b	.	.
.	8e	16a	.	.
.	.	16g	.	.
=7	=7	=7	=7	=7
1r	8e	[4f#	1r	1r
.	8A	.	.	.
.	[4d	16f#]	.	.
.	.	16g	.	.
.	.	16a	.	.
.	.	16b	.	.
.	8d]	16cc#	.	.
.	.	16dd	.	.
.	16e	16cc#	.	.
.	16d	16dd	.	.
.	16c#	8e	.	.
.	16d	.	.	.
.	16B	8a	.	.
.	16c#	.	.	.
=8	=8	=8	=8	=8
8r	16d	16f#	1r	1r
.	16c#	16e	.	.
8D	16d	16f#	.	.
.	16e	16g	.	.
8D	16d	16f#	.	.
.	16e	16g	.	.
8D	16d	[8a	.	.
.	16c	.	.	.
8G	16B	8a]	.	.
.	16A	.	.	.
8G	16B	8g	.	.
.	16c	.	.	.
8G	16B	8r	.	.
.	16d	.	.	.
8G	16c	8g	.	.
.	16B	.	.	.
=9	=9	=9	=9	=9
8G	4A	16cc	1r	1r
.	.	16b	.	.
16F#	.	16a	.	.
16E	.	16b	.	.
8F#	[4a	16cc	.	.
.	.	16dd	.	.
8D	.	16b	.	.
.	.	16cc	.	.
8B	16a]	4dd	.	.
.	16d	.	.	.
8B	16e	.	.	.
.	16f#	.	.	.
8B	16g	8r	.	.
.	16a	.	.	.
8B	16f#	8dd	.	.
.	16g	.	.	.
=10	=10	=10	=10	=10
8B	[4c	16ee	1r	1r
.	.	16dd	.	.
16A	.	16ee	.	.
16G	.	16ff	.	.
8A	16c]	16ee	.	.
.	16e	16gg	.	.
8A	16d	16ff#	.	.
.	16c	16aa	.	.
8A	[4B	16dd	.	.
.	.	16cc	.	.
8D	.	16dd	.	.
.	.	16ee	.	.
[4G	16B]	16dd	.	.
.	16c	16gg	.	.
.	16d	16ff#	.	.
.	16e	16gg	.	.
=11	=11	=11	=11	=11
4G]	16f#	16a	1r	1r
.	16g	16b	.	.
.	16f#	16a	.	.
.	16g	16b	.	.
4F#	8A	16cc	.	.
.	.	16dd	.	.
.	[8d	16cc	.	.
.	.	16dd	.	.
4G	8d]	16b	.	.
.	.	16cc	.	.
.	8B	16b	.	.
.	.	16a	.	.
8r	[4e	16g	.	.
.	.	16b	.	.
8G	.	16ee	.	.
.	.	16dd	.	.
=12	=12	=12	=12	=12
8A	4e_	16cc#	1r	1r
.	.	16b	.	.
8G	.	16a	.	.
.	.	16g	.	.
8A	16e]	[4f#	.	.
.	16e	.	.	.
8F#	16d	.	.	.
.	16c#	.	.	.
8B	[2d	16f#]	.	.
.	.	16f#	.	.
8A	.	16g	.	.
.	.	16a	.	.
8G	.	16b	.	.
.	.	16cc	.	.
8F#	.	16b	.	.
.	.	16a	.	.
=13	=13	=13	=13	=13
8E	16d]	[2g	1r	1r
.	16B	.	.	.
8D	16c#	.	.	.
.	16d	.	.	.
8C#	16e	.	.	.
.	16f#	.	.	.
8BB	16e	.	.	.
.	16d	.	.	.
8AA	[4c#	16g]	.	.
.	.	16e	.	.
8G	.	16f#	.	.
.	.	16g	.	.
8F#	16c#]	16a	.	.
.	16A	16b	.	.
8E	16B	16a	.	.
.	16c#	16g	.	.
=14	=14	=14	=14	=14
16D	4d	4f#	8r	1r
16F#	.	.	.	.
16E	.	.	8a	.
16F#	.	.	.	.
16D	8r	8r	8a	.
16E	.	.	.	.
16C#	[8A	8e	8a	.
16D	.	.	.	.
16BB	8A]	8f#	8dd	.
16E	.	.	.	.
16D	16G#	8e	8dd	.
16E	16F#	.	.	.
16C#	4G#	8e	8dd	.
16D	.	.	.	.
16BB	.	8e	8dd	.
16C#	.	.	.	.
=15	=15	=15	=15	=15
16AA	4A	4e	8dd	1r
16A	.	.	.	.
16G	.	.	16cc#	.
16A	.	.	16b	.
16F#	4r	4r	8cc#	.
16G	.	.	.	.
16E	.	.	8a	.
16F#	.	.	.	.
16D	4r	8r	8ff#	.
16E	.	.	.	.
16C#	.	8a	8ff#	.
16D	.	.	.	.
16BB	8r	8dd	8ff#	.
16C	.	.	.	.
16AA	8d	8cc	8ff#	.
16BB	.	.	.	.
=16	=16	=16	=16	=16
8GG	16g	2b	8ff#	1r
.	16a	.	.	.
[8G	16g	.	16ee	.
.	16f#	.	16dd	.
16G]	16e	.	8ee	.
16F#	16d	.	.	.
16G	16c#	.	8ee	.
16E	16B	.	.	.
[4F#	[4A	16r	8ee	.
.	.	16g	.	.
.	.	16f#	8a	.
.	.	16e	.	.
16F#]	16A]	8d	[4dd	.
16E	16G	.	.	.
16F#	16A	8f#	.	.
16D	16F#	.	.	.
=17	=17	=17	=17	=17
4E	16G	8b	8dd]	1r
.	16F#	.	.	.
.	16G	8g	16ee	.
.	16A	.	16dd	.
4AA	16G	4e	16cc#	.
.	16B	.	16dd	.
.	16A	.	16b	.
.	16G	.	16cc#	.
4D	8F#	4d	8dd	.
.	8E	.	16a	.
.	.	.	16g	.
4r	8F#	4r	16a	.
.	.	.	16cc	.
.	8G#	.	16b	.
.	.	.	16dd	.
=18	=18	=18	=18	=18
8AA	2A	8r	2cc	1r
8BB	.	16e	.	.
.	.	16d	.	.
8C	.	16e	.	.
.	.	16g	.	.
8D	.	16f#	.	.
.	.	16a	.	.
4E	8r	2g	8r	.
.	8F#	.	16b	.
.	.	.	16a	.
4r	8G	.	16b	.
.	.	.	16dd	.
.	8A	.	16cc	.
.	.	.	16ee	.
=19	=19	=19	=19	=19
8BB	2B	8r	[2dd	1r
8C	.	16f#	.	.
.	.	16e	.	.
8D	.	16f#	.	.
.	.	16a	.	.
8E	.	16g#	.	.
.	.	16b	.	.
8F#	8r	8a	8dd]	.
8G#	[8B	4e	16cc	.
.	.	.	16b	.
8A	8B]	.	8cc	.
8AA	16A	8c	8a	.
.	16F#	.	.	.
=20	=20	=20	=20	=20
16D	8A	4c	8ff	1r
16F	.	.	.	.
16E	8A	.	8ff	.
16G	.	.	.	.
16F	8d	8r	8ff	.
16A	.	.	.	.
16G	8d	[8B	8ff	.
16B	.	.	.	.
4C	8d	8B]	8ff	.
.	8G	16cc	16ee	.
.	.	16b	16dd	.
8r	4c	16a	8ee	.
.	.	16g	.	.
8C	.	16f#	8ee	.
.	.	16e	.	.
=21	=21	=21	=21	=21
16D	4A	4f#	8ee	1r
16E	.	.	.	.
16C	.	.	8a	.
16D	.	.	.	.
16BB	[4B	4g#	8dd	.
16E	.	.	.	.
16D	.	.	8dd	.
16E	.	.	.	.
4AA	8B]	4e	8dd	.
.	16A	.	16cc	.
.	16G#	.	16b	.
[4A	8A	16r	8cc	.
.	.	16g	.	.
.	8c	16f	8a	.
.	.	16e	.	.
=22	=22	=22	=22	=22
4A]	4B	16d	8b	1r
.	.	16e	.	.
.	.	16d	8cc#	.
.	.	16c#	.	.
[4G	[4E	16B	8dd	.
.	.	16e	.	.
.	.	16d	8ee	.
.	.	16e	.	.
8G]	8E]	8A	8cc#	.
16F#	8D	8r	8a	.
16E	.	.	.	.
8F#	16r	4r	8aa	.
.	16A	.	.	.
8AA	16B	.	8aa	.
.	16c#	.	.	.
=23	=23	=23	=23	=23
8BB	16d	1r	8aa	1r
.	16e	.	.	.
8BB	16c#	.	16gg	.
.	16d	.	16ff#	.
8C#	16e	.	16gg	.
.	16d	.	16ff#	.
8C#	16c#	.	16ee	.
.	16B	.	16gg	.
4D	8A	.	16ff#	.
.	.	.	16ee	.
.	8d	.	16dd	.
.	.	.	16ff#	.
8r	8d	.	16ee	.
.	.	.	16gg	.
8D	8d	.	16ff#	.
.	.	.	16aa	.
=24	=24	=24	=24	=24
8E	8d	1r	16gg	1r
.	.	.	16ee	.
8E	16c	.	16ff#	.
.	16B	.	16gg	.
8F#	16c	.	16aa	.
.	16B	.	16gg	.
8F#	16A	.	16ff#	.
.	16c	.	16ee	.
4G	16B	.	8dd	.
.	16A	.	.	.
.	16G	.	8gg	.
.	16B	.	.	.
8r	16A	.	8gg	.
.	16c	.	.	.
8GG	16B	.	8gg	.
.	16d	.	.	.
=25	=25	=25	=25	=25
8AA	16c	1r	8gg	1r
.	16A	.	.	.
8AA	16B	.	16ff	.
.	16c	.	16ee	.
8BB	16d	.	16ff	.
.	16c	.	16ee	.
8BB	16B	.	16dd	.
.	16A	.	16ff	.
4C	8G	.	16ee	.
.	.	.	16ff	.
.	8G	.	16ee	.
.	.	.	16dd	.
8r	[4A	.	16cc	.
.	.	.	16b	.
8C#	.	.	16a	.
.	.	.	16g	.
=26	=26	=26	=26	=26
4D	8A]	8r	16f#	1r
.	.	.	16e	.
.	8A	8d	16f#	.
.	.	.	16a	.
8r	16B	8d	2dd	.
.	16c	.	.	.
8BB	16B	8d	.	.
.	16A	.	.	.
4E	16G	8g	.	.
.	16A	.	.	.
.	16G	8g	.	.
.	16F#	.	.	.
4AA	16E	8g	4cc#	.
.	16G	.	.	.
.	16F#	8g	.	.
.	16E	.	.	.
=27	=27	=27	=27	=27
8D	4D	8g	8dd	1r
8DD	.	16f#	8a	.
.	.	16e	.	.
16r	4r	8f#	[4aa	.
16D	.	.	.	.
16F#	.	8d	.	.
16D	.	.	.	.
8G	2r	8b	16aa]	.
.	.	.	16dd	.
8GG	.	8b	16ee	.
.	.	.	16ff#	.
16r	.	8b	16gg	.
16E	.	.	16aa	.
16G	.	8b	16ff#	.
16E	.	.	16gg	.
=28	=28	=28	=28	=28
8A	1r	8b	[4cc	1r
8G	.	16a	.	.
.	.	16g	.	.
8F#	.	8a	16cc]	.
.	.	.	16ee	.
8D	.	8a	16dd	.
.	.	.	16cc	.
8G	.	8a	16b	.
.	.	.	16a	.
8F#	.	8d	16b	.
.	.	.	16cc	.
8E	.	[4g	16b	.
.	.	.	16cc	.
8D	.	.	16dd	.
.	.	.	16ee	.
=29	=29	=29	=29	=29
8C	1r	4g]	16ff#	1r
.	.	.	16gg	.
8AA	.	.	16ff#	.
.	.	.	16gg	.
8D	.	[4f#	16a	.
.	.	.	16dd	.
8DD	.	.	16cc	.
.	.	.	16dd	.
4GG	.	16f#]	[4b	.
.	.	16B	.	.
.	.	16c#	.	.
.	.	16d#	.	.
8r	.	[4e	16b]	.
.	.	.	16a	.
8G	.	.	16b	.
.	.	.	16cc#	.
=30	=30	=30	=30	=30
8c	1r	4e]	16dd#	1r
.	.	.	16ee	.
8A	.	.	16dd#	.
.	.	.	16ee	.
8B	.	4d#	16f#	.
.	.	.	16b	.
8BB	.	.	16a	.
.	.	.	16b	.
4E	.	16e	8g	.
.	.	16B	.	.
.	.	16e	8bb	.
.	.	16g	.	.
8r	.	16b	8bb	.
.	.	16e	.	.
8E	.	16g	8bb	.
.	.	16b	.	.
=31	=31	=31	=31	=31
8A	1r	16cc	8bb	1r
.	.	16A	.	.
8G	.	16c	16aaM	.
.	.	16e	16gg	.
8F#	.	16a	8aa	.
.	.	16d	.	.
8D	.	16f#	8aa	.
.	.	16a	.	.
4G	.	16b	8aa	.
.	.	16a	.	.
.	.	16g	8dd	.
.	.	16f#	.	.
8r	.	16e	8gg	.
.	.	16d	.	.
8E	.	16c	8gg	.
.	.	16B	.	.
=32	=32	=32	=32	=32
8F#	1r	16A	8gg	1r
.	.	16b	.	.
8E	.	16a	16ff#M	.
.	.	16g	16ee	.
8D#	.	16f#	8ff#	.
.	.	16e	.	.
8BB	.	16d#	8ff#	.
.	.	16c#	.	.
8GG	.	4B	16ff#	.
.	.	.	16ee	.
16G	.	.	16dd#	.
16F#	.	.	16ff#	.
8G	.	[4b	16ee	.
.	.	.	16dd	.
8E	.	.	16cc	.
.	.	.	16b	.
=33	=33	=33	=33	=33
8A	1r	16b]	[2cc	1r
.	.	16a	.	.
8E	.	16g#	.	.
.	.	16b	.	.
8C	.	16a	.	.
.	.	16g	.	.
8AA	.	16f#	.	.
.	.	16e	.	.
8BB	.	2d#	16cc]	.
.	.	.	16b	.
16B	.	.	16a	.
16A	.	.	16cc	.
8B	.	.	16b	.
.	.	.	16a	.
8BB	.	.	16g	.
.	.	.	16f#	.
=34	=34	=34	=34	=34
8E	1r	8e	16g	1r
.	.	.	16b	.
8D	.	16B	[8ee	.
.	.	16e	.	.
8C	.	8g	16ee]	.
.	.	.	16gg	.
8BB	.	16e	[8ccc	.
.	.	16g	.	.
8AA	.	16cc	16ccc]	.
.	.	16b	16gg	.
8A	.	16a	16ff#	.
.	.	16g	16ee	.
8B	.	16f#	8.dd#	.
.	.	16cc	.	.
8BB	.	16b	.	.
.	.	16a	16ee	.
=35	=35	=35	=35	=35
16E	8r	8g	8ee	1r
16F#	.	.	.	.
16D#	8B	8f#	8r	.
16F#	.	.	.	.
16E	8B	8g	4r	.
16G	.	.	.	.
16F#	8B	8a	.	.
16A	.	.	.	.
16G	8e	[2b	8r	.
16A	.	.	.	.
16F#	8e	.	8dd#	.
16A	.	.	.	.
16G	8e	.	8ee	.
16B	.	.	.	.
16A	8e	.	8ff#	.
16c	.	.	.	.
=36	=36	=36	=36	=36
8B	8e	4b]	8gg	1r
8BB	16d	.	16ff#	.
.	16c#	.	16ee	.
16r	8d	8r	8ff#	.
16BB	.	.	.	.
16AA	8B	8dd	8dd	.
16BB	.	.	.	.
16GG	8g	4dd	8bb	.
16BB	.	.	.	.
16AA	8g	.	8bb	.
16C	.	.	.	.
16BB	8g	8r	8bb	.
16D	.	.	.	.
16C#	8g	8g	8bb	.
16E	.	.	.	.
=37	=37	=37	=37	=37
8D	8g	4dd	8bb	1r
8DD	16f#	.	16aa	.
.	16e	.	16gg	.
16r	8f#	8r	8aa	.
16D	.	.	.	.
16D#	8f#	8b	8aa	.
16BB	.	.	.	.
8E	8f#	4b	8aa	.
8EE	16e	.	16gg	.
.	16d#	.	16ff#	.
16r	[4e	8r	8gg	.
16E	.	.	.	.
16G	.	8b	8ee	.
16E	.	.	.	.
=38	=38	=38	=38	=38
8A	8e]	4a	16ccc	1r
.	.	.	16bb	.
8F#	16f#	.	16aa	.
.	16e	.	16gg	.
8B	16d#	4r	16ff#	.
.	16e	.	16bb	.
8BB	16c#	.	16aa	.
.	16d#	.	16bb	.
4EE	4e	16e	[2gg	.
.	.	16f#	.	.
.	.	16g	.	.
.	.	16a	.	.
4r	8r	16b	.	.
.	.	16cc#	.	.
.	8e	16dd	.	.
.	.	16b	.	.
=39	=39	=39	=39	=39
1r	16a	8cc#	2gg]	1r
.	16g	.	.	.
.	16f#	8dd	.	.
.	16e	.	.	.
.	16d	8ee	.	.
.	16c#	.	.	.
.	16B	8cc#	.	.
.	16A	.	.	.
.	4d	16d	[2ff#	.
.	.	16e	.	.
.	.	16f#	.	.
.	.	16g	.	.
.	8r	16a	.	.
.	.	16b	.	.
.	8d	16cc	.	.
.	.	16a	.	.
=40	=40	=40	=40	=40
1r	16g	8b	2ff#]	1r
.	16f#	.	.	.
.	16e	8cc	.	.
.	16d	.	.	.
.	16c	8dd	.	.
.	16B	.	.	.
.	16A	8b	.	.
.	16G	.	.	.
.	4c#	16c#	[2ee	.
.	.	16d	.	.
.	.	16e	.	.
.	.	16f#	.	.
.	8r	16g#	.	.
.	.	16a#	.	.
.	8c#	16b	.	.
.	.	16g#	.	.
=41	=41	=41	=41	=41
1r	16f#	8a#	2ee]	1r
.	16e	.	.	.
.	16d	8b	.	.
.	16c#	.	.	.
.	16B	8cc#	.	.
.	16A#	.	.	.
.	16G#	8a#	.	.
.	16F#	.	.	.
.	8B	16b	4dd	.
.	.	16f#	.	.
.	8d	16b	.	.
.	.	16dd	.	.
.	8e	4g#	16r	.
.	.	.	16dd	.
.	8E	.	16b	.
.	.	.	16g#	.
=42	=42	=42	=42	=42
1r	8A	16r	4cc	1r
.	.	16e	.	.
.	8c	16a	.	.
.	.	16cc	.	.
.	8d	4f#	16r	.
.	.	.	16cc	.
.	8D	.	16a	.
.	.	.	16f#	.
.	16r	8g	4b	.
.	16G	.	.	.
.	16B	8f#	.	.
.	16d	.	.	.
.	16C	4e	8ee	.
.	16G	.	.	.
.	16E	.	8cc	.
.	16C	.	.	.
=43	=43	=43	=43	=43
1r	16r	8f#	[4a	1r
.	16F#	.	.	.
.	16A	8e	.	.
.	16c	.	.	.
.	16BB	4d#	16a]	.
.	16F#	.	16cc	.
.	16D#	.	16b	.
.	16BB	.	16a	.
.	8E	4e	16g	.
.	.	.	16a	.
.	8EE	.	16b	.
.	.	.	16g	.
.	8r	4r	16e	.
.	.	.	16b	.
.	8E	.	16g	.
.	.	.	16e	.
=44	=44	=44	=44	=44
1r	8G#	2r	16d	1r
.	.	.	16b	.
.	8B	.	16g#	.
.	.	.	16d	.
.	8G#	.	16b	.
.	.	.	16f	.
.	8E	.	16e	.
.	.	.	16d	.
.	8A	4r	16c	.
.	.	.	16d	.
.	8AA	.	16e	.
.	.	.	16c	.
.	4r	16r	8A	.
.	.	16e	.	.
.	.	16c	8a	.
.	.	16A	.	.
=45	=45	=45	=45	=45
1r	2r	16G	8cc#	1r
.	.	16e	.	.
.	.	16c#	8ee	.
.	.	16G	.	.
.	.	16e	8cc#	.
.	.	16B-	.	.
.	.	16A	8a	.
.	.	16G	.	.
.	4r	16F#	16dd	.
.	.	16G	16ee	.
.	.	16A	16ff#	.
.	.	16F#	16dd	.
.	16r	8D	16aa	.
.	16A	.	16ff#	.
.	16F#	8r	16dd	.
.	16D	.	16a	.
=46	=46	=46	=46	=46
1r	16C	2r	16ee-	1r
.	16A	.	16cc	.
.	16F#	.	16a	.
.	16C	.	16f#	.
.	16A	.	16ff#	.
.	16E-	.	16cc	.
.	16D	.	16b	.
.	16C	.	16a	.
.	4BB	8r	16g	.
.	.	.	16dd	.
.	.	8G	16b	.
.	.	.	16g	.
.	4C#	16r	16ee	.
.	.	16G	16b	.
.	.	16F#	16a	.
.	.	16E	16g	.
=47	=47	=47	=47	=47
1r	8r	8A	16f#	1r
.	.	.	16cc#	.
.	8F#	8r	16a	.
.	.	.	16f#	.
.	8BB	16r	16dd	.
.	.	16F#	16a	.
.	8r	16E	16g	.
.	.	16D	16f#	.
.	8r	8G	16e	.
.	.	.	16b	.
.	8E	8r	16g	.
.	.	.	16e	.
.	8AA	16r	16cc#	.
.	.	16E	16g	.
.	8r	16D	16f#	.
.	.	16C#	16e	.
=48	=48	=48	=48	=48
1r	4FF#	8r	16d	1r
.	.	.	16a	.
.	.	16D	16f#	.
.	.	16E	16d	.
.	4r	8F#	16dd	.
.	.	.	16a	.
.	.	8D	16g	.
.	.	.	16f#	.
.	4GG	8r	16e	.
.	.	.	16b	.
.	.	16E	16g	.
.	.	16F#	16e	.
.	4r	8G	16ee	.
.	.	.	16b	.
.	.	8E	16a	.
.	.	.	16g	.
=49	=49	=49	=49	=49
1r	4AA	8r	16f#	1r
.	.	.	16cc#	.
.	.	16F#	16a	.
.	.	16G	16f#	.
.	4r	8A	16ff#	.
.	.	.	16cc	.
.	.	8F#	16b	.
.	.	.	16a	.
.	4BB	8r	16g	.
.	.	.	16dd	.
.	.	16G	16b	.
.	.	16A	16g	.
.	4r	8B	16gg	.
.	.	.	16ff#	.
.	.	8G	16ee	.
.	.	.	16dd	.
=50	=50	=50	=50	=50
1r	4AA	8r	16cc#	1r
.	.	.	16ee	.
.	.	16G	16cc#	.
.	.	16F#	16a	.
.	4r	8E	16aa	.
.	.	.	16ee	.
.	.	8G	16cc#	.
.	.	.	16a	.
.	4AA	8r	16dd	.
.	.	.	16ff#	.
.	.	16F#	16dd	.
.	.	16E	16a	.
.	4r	8D	16aa	.
.	.	.	16ff#	.
.	.	8F#	16dd	.
.	.	.	16a	.
=51	=51	=51	=51	=51
1r	4AA	8r	16ee	1r
.	.	.	16gg	.
.	.	16E	16ee	.
.	.	16D	16cc#	.
.	4r	8C#	16aa	.
.	.	.	16ee	.
.	.	8E	16cc#	.
.	.	.	16a	.
.	8AA	8r	16ff#	.
.	.	.	16aa	.
.	8r	32D	16ff#	.
.	.	32C	.	.
.	.	16D	16dd	.
.	8AA	8r	16gg	.
.	.	.	16ee	.
.	8r	32E	16cc#	.
.	.	32D	.	.
.	.	16E	16a	.
=52	=52	=52	=52	=52
2r	8AA	8r	16ff#	1r
.	.	.	16dd	.
.	8r	32F#	16b	.
.	.	32E	.	.
.	.	16F#	16a	.
.	8AA	8r	16g	.
.	.	.	16ee	.
.	8r	32G	16cc#	.
.	.	32F#	.	.
.	.	16G	16g	.
8r	16r	8A	16f#	.
.	16G	.	16a	.
8AA	16F#	8r	16dd	.
.	16G	.	16f#	.
8AA	4A	8r	16e	.
.	.	.	16dd	.
8AA	.	[8g	16g	.
.	.	.	16cc#	.
=53	=53	=53	=53	=53
8D	[2A	16g]	4dd	1r
.	.	16g	.	.
8D	.	16f#	.	.
.	.	16e	.	.
8D	.	16f#	4r	.
.	.	16a	.	.
8D	.	16g	.	.
.	.	16f#	.	.
8D	16A]	8e	2r	.
.	16d	.	.	.
16C#	16e	8r	.	.
16BB	16f#	.	.	.
8C#	16e	[4ee	.	.
.	16d	.	.	.
8AA	16c#	.	.	.
.	16B	.	.	.
=54	=54	=54	=54	=54
8F#	4A	16ee]	1r	1r
.	.	16a	.	.
8F#	.	16b	.	.
.	.	16cc#	.	.
8F#	8r	16dd	.	.
.	.	16ee	.	.
8F#	8A	16cc#	.	.
.	.	16dd	.	.
8F#	16B	[4g	.	.
.	16A	.	.	.
16E	16B	.	.	.
16D	16d	.	.	.
8E	16c#	16g]	.	.
.	16d	16b	.	.
8E	16c#	16a	.	.
.	16B	16g	.	.
=55	=55	=55	=55	=55
8E	16A	[4f#	1r	1r
.	16G	.	.	.
8AA	16F#	.	.	.
.	16E	.	.	.
2D	16D	16f#]	.	.
.	16E	16g	.	.
.	16F#	16a	.	.
.	16G	16b	.	.
.	16A	16cc#	.	.
.	16G	16dd	.	.
.	16A	16cc#	.	.
.	16B	16dd	.	.
4C#	16A	8e	.	.
.	16G	.	.	.
.	16F#	8a	.	.
.	16E	.	.	.
=56	=56	=56	=56	=56
8D	8D	16f#	1r	1r
.	.	16e	.	.
8E	8r	16f#	.	.
.	.	16a	.	.
8F#	16r	8dd	.	.
.	16A	.	.	.
8D	16d	8dd	.	.
.	16f#	.	.	.
8E	16g	8dd	.	.
.	16e	.	.	.
8E	16f#	16cc	.	.
.	16g	16b	.	.
8F#	16a	16cc	.	.
.	16g	16b	.	.
8F#	16f#	16a	.	.
.	16e	16cc	.	.
=57	=57	=57	=57	=57
4G	8d	16b	1r	1r
.	.	16a	.	.
.	8g	16g	.	.
.	.	16b	.	.
8r	8g	16a	.	.
.	.	16cc	.	.
8GG	8g	16b	.	.
.	.	16dd	.	.
8AA	8g	16cc	.	.
.	.	16a	.	.
8AA	16f	16b	.	.
.	16e	16cc	.	.
8BB	16f	16dd	.	.
.	16e	16cc	.	.
8BB	16d	16b	.	.
.	16f	16a	.	.
=58	=58	=58	=58	=58
4C	16e	8g	1r	1r
.	16d	.	.	.
.	16c	8cc	.	.
.	16e	.	.	.
8r	16d	8cc	.	.
.	16f	.	.	.
8C	16e	8cc	.	.
.	16g	.	.	.
8D	16f	8cc	.	.
.	16d	.	.	.
8D	16e	16b-	.	.
.	16f	16a	.	.
8E	16g	16b-	.	.
.	16f	16a	.	.
8E	16e	16g	.	.
.	16d	16b-	.	.
=59	=59	=59	=59	=59
8F	16c	16a	2r	1r
.	16B	16g#	.	.
8E	16c	16a	.	.
.	16d	16b	.	.
8F	16c	16a	.	.
.	16e	16cc	.	.
8D	16d	16b	.	.
.	16c	16a	.	.
8E	16B	16g#	8r	.
.	16d	16b	.	.
8D	16G#	16e	8ee	.
.	16B	16g#	.	.
8C	16c	16a	8ee	.
.	16e	16cc	.	.
8BB	16d	16g#	8ee	.
.	16B	16b	.	.
=60	=60	=60	=60	=60
8AA	16e	16cc	8aa	1r
.	16d	16ee	.	.
8GG	16c	[8a	8aa	.
.	16d	.	.	.
4FF	16e	16a]	8aa	.
.	16c	16ee	.	.
.	16B	16dd	8aa	.
.	16A	16ff	.	.
8EE	8e	4b	8aa	.
8E	8B	.	16gg#	.
.	.	.	16ff#	.
16r	[4e	4r	8gg#	.
16E	.	.	.	.
16G#	.	.	8ee	.
16E	.	.	.	.
=61	=61	=61	=61	=61
8A	16e]	4r	8ccc	1r
.	16e	.	.	.
8AA	16g#	.	8ccc	.
.	16e	.	.	.
16r	[4a	16r	8ccc	.
16AA	.	16cc	.	.
16C	.	16ee	8ccc	.
16AA	.	16cc	.	.
8D	16a]	4ff	8ccc	.
.	16a	.	.	.
8DD	16f	.	16bb	.
.	16a	.	16aa	.
16r	[4d	16r	8bb	.
16BB	.	16dd	.	.
16D	.	16b	8bb	.
16BB	.	16dd	.	.
=62	=62	=62	=62	=62
8C	16d]	4g#	8bb	1r
.	16f	.	.	.
8CC	16B	.	8ee	.
.	16d	.	.	.
16r	[4c	16r	[4aa	.
16C	.	16ee	.	.
16E	.	16cc	.	.
16C	.	16ee	.	.
8F	8c]	8a	8aa]	.
8D	8f	[8dd	16bb	.
.	.	.	16aa	.
8E	[4e	16dd]	16gg#	.
.	.	16cc	16aa	.
8EE	.	16dd	16ff#	.
.	.	16b	16gg#	.
=63	=63	=63	=63	=63
4AA	8e]	4cc	4aa	1r
.	8e	.	.	.
16r	8a	4r	4r	.
16AA	.	.	.	.
16C	8a	.	.	.
16AA	.	.	.	.
4BB	8a	2r	2r	.
.	16g	.	.	.
.	16f#	.	.	.
16r	8g	.	.	.
16C#	.	.	.	.
16E	8g	.	.	.
16C#	.	.	.	.
=64	=64	=64	=64	=64
4D	8g	8r	1r	1r
.	16f#	8a	.	.
.	16e	.	.	.
16r	8f#	8dd	.	.
16D	.	.	.	.
16F#	8b	8dd	.	.
16D	.	.	.	.
4E	8g	8dd	.	.
.	8e	16cc	.	.
.	.	16b	.	.
16r	8a	8cc	.	.
16F#	.	.	.	.
16A	8f#	8cc	.	.
16F#	.	.	.	.
=65	=65	=65	=65	=65
4G	8d	8cc	8r	1r
.	16g	16b	8dd	.
.	16f#	16a	.	.
16r	8g	8b	8gg	.
16G	.	.	.	.
16B	8g	8ee	8gg	.
16G	.	.	.	.
4A	8e	8cc	8gg	.
.	8c	8a	16ff	.
.	.	.	16ee	.
16r	8B	8dd	8ff	.
16B	.	.	.	.
16d	[8G	8b	8ff	.
16B	.	.	.	.
=66	=66	=66	=66	=66
8c	8G]	1g	8ff	1r
8C	8G	.	16ee	.
.	.	.	16dd	.
8C	[4c	.	16ee	.
.	.	.	16gg	.
8C	.	.	16ff	.
.	.	.	16ee	.
8G	8c]	.	16dd	.
.	.	.	16cc	.
8G	16B	.	16dd	.
.	16A	.	16ee	.
8G	8B	.	16dd	.
.	.	.	16ff	.
8G	8B-	.	16ee	.
.	.	.	16dd	.
=67	=67	=67	=67	=67
8G	16A	1r	8cc#	1r
.	16G	.	.	.
16F#	16A	.	8a	.
16E	16B-	.	.	.
8F#	16A	.	[4aa	.
.	16G	.	.	.
8D	16F#	.	.	.
.	16E	.	.	.
8B-	16D	.	8aa]	.
.	16F#	.	.	.
8B-	16G	.	16gg	.
.	16A	.	16ff#	.
8B-	16B-	.	8gg	.
.	16G	.	.	.
8B-	16A	.	8dd	.
.	16B-	.	.	.
=68	=68	=68	=68	=68
8B-	[2c	16r	[4ee-	1r
.	.	16g	.	.
16A	.	16a	.	.
16G	.	16b-	.	.
8A	.	16cc	8ee-]	.
.	.	16a	.	.
8A	.	16b-	16dd	.
.	.	16g	16cc	.
8A	16c]	4f#	[4dd	.
.	16e-	.	.	.
8D	16d	.	.	.
.	16c	.	.	.
[4G	16B	4g	16dd]	.
.	16d	.	16ff	.
.	16c	.	16ee-	.
.	16B	.	16dd	.
=69	=69	=69	=69	=69
4G]	4A	2a	16cc	2r
.	.	.	16b	.
.	.	.	16cc	.
.	.	.	16dd	.
4F#	4d	.	16cc	.
.	.	.	16ee-	.
.	.	.	16dd	.
.	.	.	16cc	.
4G	4d	8g	16b	4r
.	.	.	16a	.
.	.	8g	16g	.
.	.	.	[16dd	.
8r	8r	16f	4dd_	8r
.	.	16a-	.	.
8GG	8G	16g	.	8B
.	.	16f	.	.
=70	=70	=70	=70	=70
4C	4G	4c	16dd]	[2e-
.	.	.	32cc	.
.	.	.	32b-	.
.	.	.	16a-	.
.	.	.	[16cc	.
8r	8r	16g	4cc_	.
.	.	16b-	.	.
8C	8c	16a-	.	.
.	.	16g	.	.
4D	4A	4f#	4cc]	16e-]
.	.	.	.	16d
.	.	.	.	16c
.	.	.	.	16e-
4r	8r	8r	8r	16A
.	.	.	.	16c
.	8d	8f#	8cc	16B-
.	.	.	.	16A
=71	=71	=71	=71	=71
4D	4d	4g	4b-	16G
.	.	.	.	16F
.	.	.	.	16E-
.	.	.	.	16G
4r	8r	8r	8r	16D
.	.	.	.	16F
.	8d	8g	8b-	16E
.	.	.	.	16D
4DD	4e	4g	4b-	4C#
4r	4r	4r	16r	4r
.	.	.	16a	.
.	.	.	16b-	.
.	.	.	16g	.
=72	=72	=72	=72	=72
8DD	8A	8d	8f#	8D
8D	8r	16a	8r	8r
.	.	16g	.	.
8D	4r	16f#	4r	4r
.	.	16e	.	.
8D	.	16d	.	.
.	.	16c	.	.
8G	16B	8r	2r	2r
.	16A	.	.	.
8G	16B	8d	.	.
.	16c	.	.	.
8G	16B	8d	.	.
.	16c	.	.	.
8G	16A	8d	.	.
.	16B	.	.	.
=73	=73	=73	=73	=73
8G	16c	8a	1r	1r
.	16B	.	.	.
16F#	16c	8a	.	.
16E	16d	.	.	.
8F#	16c	8a	.	.
.	16d	.	.	.
8D	16B	8a	.	.
.	16c	.	.	.
8B	16d	8a	.	.
.	16c	.	.	.
8B	16d	16g	.	.
.	16e	16f#	.	.
8B	16d	8g	.	.
.	16e	.	.	.
8B	16c	8e	.	.
.	16d	.	.	.
=74	=74	=74	=74	=74
8B	16e	8cc	1r	1r
.	16d	.	.	.
16A	16e	8cc	.	.
16G	16f#	.	.	.
8A	16e	8cc	.	.
.	16f#	.	.	.
8A	16d	8cc	.	.
.	16e	.	.	.
8A	16f#	8cc	.	.
.	16a	.	.	.
8D	16g	16b	.	.
.	16f#	16a	.	.
[4G	16e	8b	.	.
.	16d	.	.	.
.	16c	8b	.	.
.	16B	.	.	.
=75	=75	=75	=75	=75
4G]	16c	8b	2r	1r
.	16B	.	.	.
.	16c	8e	.	.
.	16d	.	.	.
4F#	16c	[4a	.	.
.	16e	.	.	.
.	16d	.	.	.
.	16c	.	.	.
4G	16B	8a]	8r	.
.	16A	.	.	.
.	16B	16g	8dd	.
.	16c	16f#	.	.
8r	16B	8g	8dd	.
.	16c	.	.	.
8F#	16A	8r	8dd	.
.	16B	.	.	.
=76	=76	=76	=76	=76
2E	16c#	8r	8gg	1r
.	16B	.	.	.
.	16c#	8g	8gg	.
.	16d	.	.	.
.	16c#	8g	8gg	.
.	16d	.	.	.
.	16B	8g	8gg	.
.	16c#	.	.	.
8D	16d	8dd	8gg	.
.	16c#	.	.	.
8C	16d	8dd	16ff#	.
.	16e	.	16ee	.
8BB	16d	8dd	8ff#	.
.	16e	.	.	.
8AA	16f#	8dd	8dd	.
.	16d	.	.	.
=77	=77	=77	=77	=77
16GG	[2g	8dd	8bb	1r
16G	.	.	.	.
16F#	.	16b	8bb	.
16G	.	16a	.	.
16E	.	8b	8bb	.
16F#	.	.	.	.
16D	.	8g	8bb	.
16E	.	.	.	.
4C	16g]	8ee	8bb	.
.	16g	.	.	.
.	16a	8ee	16aa	.
.	16b	.	16gg	.
16r	8cc	8ee	8aa	.
16c	.	.	.	.
16B	8cc	8ee	8aa	.
16c	.	.	.	.
=78	=78	=78	=78	=78
16F#	8cc	8ee	8aa	1r
16G	.	.	.	.
16F#	16b	16dd	8dd	.
16A	16a	16cc	.	.
16BB	8g	8dd	[4gg	.
16C	.	.	.	.
16BB	[8b	8dd	.	.
16D	.	.	.	.
8EE	8b]	8dd	8gg]	.
8E	16cc	8g	16aa	.
.	16b	.	16gg	.
8AA	4a	[4cc	16ff#	.
.	.	.	16gg	.
8D	.	.	16ee	.
.	.	.	16ff#	.
=79	=79	=79	=79	=79
4GG	4g	8cc]	[1gg	8r
.	.	16dd	.	8G
.	.	16cc	.	.
8r	8r	16b	.	8G
.	.	16cc	.	.
8FF	8d	16a	.	8G
.	.	16b	.	.
4EE	4e	16cc	.	8c
.	.	16b	.	.
.	.	16cc	.	8c
.	.	16dd	.	.
8r	8r	16cc	.	8c
.	.	16dd	.	.
8EE	8e	16b	.	8c
.	.	16cc	.	.
=80	=80	=80	=80	=80
4DD	4f	16dd	1gg_	8c
.	.	16cc	.	.
.	.	16dd	.	16B
.	.	16ee	.	16A
8r	8r	16dd	.	8B
.	.	16ee	.	.
8DD	8f	16cc	.	8G
.	.	16dd	.	.
4CC	[4g	16ee	.	8e
.	.	16dd	.	.
.	.	16cc	.	8e
.	.	16b	.	.
8r	16g]	[4cc	.	8e
.	16a	.	.	.
8CC	16g	.	.	8e
.	16f#	.	.	.
=81	=81	=81	=81	=81
[1GG	[2g	8cc]	1gg_	8e
.	.	16b	.	16d
.	.	16a	.	16c
.	.	8b	.	8d
.	.	16cc	.	8d
.	.	16dd	.	.
.	8g]	16ee	.	8d
.	.	16dd	.	.
.	8b	16ee	.	8G
.	.	16ff	.	.
.	4cc	16ee	.	[4c
.	.	16gg	.	.
.	.	16ff	.	.
.	.	16ee	.	.
=82	=82	=82	=82	=82
1GG_	4g	16dd	2gg_	8c]
.	.	16cc	.	.
.	.	16b	.	16d
.	.	16cc	.	16c
.	4d	16dd	.	16B
.	.	16ff	.	16c
.	.	16ee	.	16A
.	.	16dd	.	16B
.	2a	[2cc	8gg]	2c 2e
.	.	.	16aa	.
.	.	.	16gg	.
.	.	.	16ff#	.
.	.	.	16gg	.
.	.	.	16ee	.
.	.	.	16ff#	.
=83	=83	=83	=83	=83
1GG]	1g	8cc]	1gg	1G 1d
.	.	16dd	.	.
.	.	16cc	.	.
.	.	16b	.	.
.	.	16cc	.	.
.	.	16a	.	.
.	.	16cc	.	.
.	.	2b	.	.
==	==	==	==	==
*-	*-	*-	*-	*-
